X:1
T:Title
%%score ( 1 2 ) { 3 | 4 }
L:1/8
Q:1/4=110
M:4/4
K:G
V:1 treble nm="Grand Piano, Soprano"
V:2 treble 
V:3 bass nm="Choir Pad, Invitation (La Trobe)"
V:4 bass 
V:1
 [CG]2 [CE]2 [CA]2 [Cc]2 | [CG]2 [B,=F]2 [CE]2 [B,D]2 | [CE][DF] [DG]2 [EA]2 A-[CA] | [B,G]8 | %4
w: By~Peter~LaTrobe~(1795\-1863) * * *||||
 [CG]2 [CE]2 [CA]2 [Cc]2 | [CG]2 [B,=F]2 [CE]2 [B,D]2 | [CE][DF] [DG]2 [EA]2 A-[CA] | [B,G]8 | %8
w: ||||
 [Dd]2 [Dd]2 [DB]2 [DG]2 | [CA]2 [Dc]2 [DB]4 | [EB]2 [Ec]2 [Ee]2 [Ec]2 | c-[Ac]B-[^GB] A4 | %12
w: ||||
 [DG]2 [CE]2 [CA]2 [Cc]2 | [CG]2 [B,=F]2 [CE]2 [CG]2 | [CA][DB] [Cc]2 [=Fd]2 [FB]2 | [Ec]8 |] %16
w: ||||
V:2
 x8 | x8 | z4 z2 .D2 | x8 | x8 | x8 | z4 z2 .D2 | x8 | x8 | x8 | x8 | .E2 .A2 z4 | x8 | x8 | x8 | %15
 x8 |] %16
V:3
 E,2 G,2 =F,2 G,2 | A,2 G,2 G,2 G,2 | G,A, G,2 G,2 F,2 | G,8 | E,2 G,2 =F,2 G,2 | A,2 G,2 G,2 G,2 | %6
 G,A, G,2 G,2 F,2 | G,8 | G,2 A,2 G,2 G,2 | E,2 F,2 G,4 | D2 C2 ^G,2 A,2 | A,2 D2 C4 | %12
 G,2 G,2 =F,2 G,2 | A,2 G,2 G,2 E,2 | A,G, G,2 A,2 G,2 | G,8 |] %16
V:4
 C,2 C,2 z2 E,2 | D,2 G,,2 C,2 G,,2 | C,2 B,,2 C,2 D,2 | G,,8 | C,2 C,2 z2 E,2 | %5
 D,2 G,,2 C,2 G,,2 | C,2 B,,2 C,2 D,2 | G,,8 | B,,2 F,2 z2 B,,2 | A,,2 D,2 G,,4 | %10
 ^G,,2 A,,2 E,2 A,,2 | E,2 E,2 A,,4 | B,,2 C,2 z2 E,2 | D,2 z2 C,2 C,2 | =F,2 E,2 F,2 z2 | C,8 |] %16

